svg/color/dht.svg

<?xml version="1.0" encoding="UTF-8" ?>
<!DOCTYPE svg PUBLIC "-//W3C//DTD SVG 1.1//EN" "http://www.w3.org/Graphics/SVG/1.1/DTD/svg11.dtd">
<svg width="250pt" height="249pt" viewBox="0 0 250 249" version="1.1" xmlns="http://www.w3.org/2000/svg">
<g id="#ffffffff">
<path fill="#ffffff" opacity="1.00" d=" M 0.00 0.00 L 250.00 0.00 L 250.00 119.98 C 248.89 93.16 239.14 66.72 222.06 45.96 C 203.21 22.63 175.64 6.52 146.01 1.75 C 117.31 -3.07 86.90 2.14 61.77 16.95 C 36.33 31.69 16.47 55.75 6.86 83.55 C 2.77 95.37 0.42 107.81 0.00 120.31 L 0.00 0.00 Z" />
<path fill="#ffffff" opacity="1.00" d=" M 221.21 204.15 C 239.48 182.36 249.81 154.12 250.00 125.69 L 250.00 249.00 L 127.78 249.00 C 163.50 248.59 198.52 231.71 221.21 204.15 Z" />
<path fill="#ffffff" opacity="1.00" d=" M 0.00 128.49 C 0.90 160.03 14.37 191.02 36.96 213.07 C 58.72 234.88 88.87 247.79 119.61 249.00 L 0.00 249.00 L 0.00 128.49 Z" />
</g>
<g id="#0e0e0fff">
<path fill="#0e0e0f" opacity="1.00" d=" M 61.77 16.95 C 86.90 2.14 117.31 -3.07 146.01 1.75 C 175.64 6.52 203.21 22.63 222.06 45.96 C 239.14 66.72 248.89 93.16 250.00 119.98 L 250.00 125.69 C 249.81 154.12 239.48 182.36 221.21 204.15 C 198.52 231.71 163.50 248.59 127.78 249.00 L 119.61 249.00 C 88.87 247.79 58.72 234.88 36.96 213.07 C 14.37 191.02 0.90 160.03 0.00 128.49 L 0.00 120.31 C 0.42 107.81 2.77 95.37 6.86 83.55 C 16.47 55.75 36.33 31.69 61.77 16.95 M 109.25 40.35 C 108.34 45.84 109.17 51.41 108.89 56.93 C 108.89 67.97 108.65 79.02 109.13 90.05 C 108.56 103.35 109.03 116.67 108.88 129.98 C 109.10 144.94 108.73 159.91 108.86 174.89 C 118.65 171.51 128.12 167.24 137.80 163.55 C 137.89 118.34 137.87 73.13 137.81 27.93 C 128.22 31.91 118.86 36.44 109.25 40.35 M 161.30 85.69 C 161.28 114.22 161.14 142.76 161.37 171.28 C 170.77 176.05 180.00 181.13 189.37 185.94 C 189.42 156.99 189.43 128.04 189.36 99.09 C 180.00 94.64 170.63 90.21 161.30 85.69 M 57.50 124.88 C 57.42 149.03 57.47 173.19 57.47 197.34 C 66.92 193.24 76.22 188.82 85.65 184.69 C 85.73 160.28 85.76 135.86 85.64 111.44 C 76.28 115.97 66.91 120.46 57.50 124.88 Z" />
</g>
<g id="#00a0d0ff">
<path fill="#00a0d0" opacity="1.00" d=" M 109.25 40.35 C 118.86 36.44 128.22 31.91 137.81 27.93 C 137.87 73.13 137.89 118.34 137.80 163.55 C 128.12 167.24 118.65 171.51 108.86 174.89 C 108.73 159.91 109.10 144.94 108.88 129.98 C 109.03 116.67 108.56 103.35 109.13 90.05 C 108.65 79.02 108.89 67.97 108.89 56.93 C 109.17 51.41 108.34 45.84 109.25 40.35 Z" />
<path fill="#00a0d0" opacity="1.00" d=" M 161.30 85.69 C 170.63 90.21 180.00 94.64 189.36 99.09 C 189.43 128.04 189.42 156.99 189.37 185.94 C 180.00 181.13 170.77 176.05 161.37 171.28 C 161.14 142.76 161.28 114.22 161.30 85.69 Z" />
<path fill="#00a0d0" opacity="1.00" d=" M 57.50 124.88 C 66.91 120.46 76.28 115.97 85.64 111.44 C 85.76 135.86 85.73 160.28 85.65 184.69 C 76.22 188.82 66.92 193.24 57.47 197.34 C 57.47 173.19 57.42 149.03 57.50 124.88 Z" />
</g>
</svg>

<?xml version="1.0" encoding="utf-8"?>
<!-- Generator: Adobe Illustrator 26.0.3, SVG Export Plug-In . SVG Version: 6.00 Build 0)  -->
<svg version="1.1" id="Layer_1" xmlns="http://www.w3.org/2000/svg" xmlns:xlink="http://www.w3.org/1999/xlink" x="0px" y="0px"
	 viewBox="0 0 250 249" style="enable-background:new 0 0 250 249;" xml:space="preserve">
<style type="text/css">
	.st0{fill:#0E0E0F;}
	.st1{fill:#00A0D0;}
</style>
<g id="_x23_0e0e0fff">
	<path class="st0" d="M61.8,17C86.9,2.1,117.3-3.1,146,1.8c29.6,4.8,57.2,20.9,76.1,44.2c17.1,20.8,26.8,47.2,27.9,74v5.7
		c-0.2,28.4-10.5,56.7-28.8,78.5c-22.7,27.6-57.7,44.4-93.4,44.9h-8.2c-30.7-1.2-60.9-14.1-82.7-35.9C14.4,191,0.9,160,0,128.5v-8.2
		c0.4-12.5,2.8-24.9,6.9-36.8C16.5,55.8,36.3,31.7,61.8,17 M109.2,40.3c-0.9,5.5-0.1,11.1-0.4,16.6c0,11-0.2,22.1,0.2,33.1
		c-0.6,13.3-0.1,26.6-0.2,39.9c0.2,15-0.1,29.9,0,44.9c9.8-3.4,19.3-7.6,28.9-11.3c0.1-45.2,0.1-90.4,0-135.6
		C128.2,31.9,118.9,36.4,109.2,40.3 M161.3,85.7c0,28.5-0.2,57.1,0.1,85.6c9.4,4.8,18.6,9.9,28,14.7c0.1-28.9,0.1-57.9,0-86.9
		C180,94.6,170.6,90.2,161.3,85.7 M57.5,124.9c-0.1,24.2,0,48.3,0,72.5c9.4-4.1,18.8-8.5,28.2-12.6c0.1-24.4,0.1-48.8,0-73.2
		C76.3,116,66.9,120.5,57.5,124.9z"/>
</g>
<g id="_x23_00a0d0ff">
	<path class="st1" d="M109.2,40.3c9.6-3.9,19-8.4,28.6-12.4c0.1,45.2,0.1,90.4,0,135.6c-9.7,3.7-19.2,8-28.9,11.3
		c-0.1-15,0.2-29.9,0-44.9c0.2-13.3-0.3-26.6,0.2-39.9c-0.5-11-0.2-22.1-0.2-33.1C109.2,51.4,108.3,45.8,109.2,40.3z"/>
	<path class="st1" d="M161.3,85.7c9.3,4.5,18.7,8.9,28.1,13.4c0.1,28.9,0.1,57.9,0,86.9c-9.4-4.8-18.6-9.9-28-14.7
		C161.1,142.8,161.3,114.2,161.3,85.7z"/>
	<path class="st1" d="M57.5,124.9c9.4-4.4,18.8-8.9,28.1-13.4c0.1,24.4,0.1,48.8,0,73.2c-9.4,4.1-18.7,8.6-28.2,12.6
		C57.5,173.2,57.4,149,57.5,124.9z"/>
</g>
</svg>
